;FLAVOR:Marlin
;TIME:24908
;Filament used: 16.4318m
;Layer height: 0.2
;MINX:15.5
;MINY:41.5
;MINZ:0.2
;MAXX:204.5
;MAXY:178.5
;MAXZ:17
;Generated with Cura_SteamEngine 4.13.1
M140 S60
M105
M190 S60
M104 S200
M105
M109 S200
M82 ;absolute extrusion mode
; Ender 3 Custom Start G-code
G92 E0 ; Reset Extruder
G28 ; Home all axes
G1 Z2.0 F3000 ; Move Z Axis up little to prevent scratching of Heat Bed
G1 X0.1 Y20 Z0.3 F5000.0 ; Move to start position
G1 X0.1 Y200.0 Z0.3 F1500.0 E15 ; Draw the first line
G1 X0.4 Y200.0 Z0.3 F5000.0 ; Move to side a little
G1 X0.4 Y20 Z0.3 F1500.0 E30 ; Draw the second line
G92 E0 ; Reset Extruder
G1 Z2.0 F3000 ; Move Z Axis up little to prevent scratching of Heat Bed
G1 X5 Y20 Z0.3 F5000.0 ; Move over to prevent blob squish
G92 E0
G92 E0
G1 F1500 E-6.5
;LAYER_COUNT:85
;LAYER:0
M107
G0 F6000 X21.739 Y42.597 Z0.2
;TYPE:SKIRT
G1 F1500 E0
G1 F1200 X22.601 Y42.227 E0.0312
G1 X23.491 Y41.931 E0.0624
G1 X24.403 Y41.713 E0.09358
G1 X25.33 Y41.572 E0.12477
G1 X26.201 Y41.513 E0.15381
G1 X26.522 Y41.504 E0.16449
G1 X26.83 Y41.5 E0.17473
G1 X192.793 Y41.5 E5.69468
G1 X193.649 Y41.511 E5.72316
G1 X194.585 Y41.565 E5.75434
G1 X195.513 Y41.697 E5.78552
G1 X196.427 Y41.909 E5.81672
G1 X197.319 Y42.198 E5.84791
G1 X198.184 Y42.561 E5.87911
G1 X199.014 Y42.997 E5.91029
G1 X199.805 Y43.502 E5.94151
G1 X200.549 Y44.073 E5.9727
G1 X201.242 Y44.705 E6.00389
G1 X201.879 Y45.393 E6.03508
G1 X202.454 Y46.134 E6.06627
G1 X202.965 Y46.92 E6.09746
G1 X203.407 Y47.748 E6.12867
G1 X203.776 Y48.61 E6.15986
G1 X204.071 Y49.5 E6.19105
G1 X204.289 Y50.412 E6.22223
G1 X204.429 Y51.34 E6.25345
G1 X204.487 Y52.201 E6.28215
G1 X204.496 Y52.521 E6.2928
G1 X204.5 Y52.83 E6.30308
G1 X204.499 Y166.9 E10.09706
G1 X204.49 Y167.627 E10.12124
G1 X204.439 Y168.564 E10.15245
G1 X204.307 Y169.492 E10.18363
G1 X204.098 Y170.406 E10.21481
G1 X203.811 Y171.299 E10.24601
G1 X203.449 Y172.165 E10.27723
G1 X203.015 Y172.996 E10.30841
G1 X202.511 Y173.787 E10.33961
G1 X201.942 Y174.532 E10.37079
G1 X201.311 Y175.227 E10.40201
G1 X200.624 Y175.865 E10.43319
G1 X199.885 Y176.442 E10.46437
G1 X199.099 Y176.954 E10.49557
G1 X198.273 Y177.397 E10.52675
G1 X197.411 Y177.769 E10.55797
G1 X196.522 Y178.065 E10.58914
G1 X195.61 Y178.285 E10.62034
G1 X194.683 Y178.426 E10.65153
G1 X193.799 Y178.487 E10.681
G1 X193.478 Y178.496 E10.69168
G1 X193.17 Y178.5 E10.70193
G1 X27.065 Y178.499 E16.2266
G1 X26.367 Y178.49 E16.24982
G1 X25.431 Y178.438 E16.281
G1 X24.502 Y178.306 E16.31221
G1 X23.588 Y178.096 E16.3434
G1 X22.695 Y177.809 E16.3746
G1 X21.83 Y177.446 E16.4058
G1 X20.999 Y177.012 E16.43698
G1 X20.208 Y176.508 E16.46817
G1 X19.463 Y175.938 E16.49937
G1 X18.769 Y175.307 E16.53057
G1 X18.132 Y174.62 E16.56173
G1 X17.555 Y173.88 E16.59294
G1 X17.043 Y173.094 E16.62414
G1 X16.6 Y172.267 E16.65535
G1 X16.229 Y171.406 E16.68653
G1 X15.933 Y170.516 E16.71772
G1 X15.714 Y169.604 E16.74892
G1 X15.573 Y168.677 E16.78011
G1 X15.513 Y167.788 E16.80974
G1 X15.504 Y167.455 E16.82082
G1 X15.5 Y167.158 E16.8307
G1 X15.501 Y53.025 E20.62678
G1 X15.51 Y52.36 E20.6489
G1 X15.563 Y51.424 E20.68008
G1 X15.695 Y50.495 E20.71129
G1 X15.906 Y49.581 E20.74249
G1 X16.194 Y48.689 E20.77366
G1 X16.557 Y47.824 E20.80487
G1 X16.992 Y46.993 E20.83606
G1 X17.496 Y46.203 E20.86723
G1 X18.066 Y45.458 E20.89843
G1 X18.698 Y44.764 E20.92965
G1 X19.386 Y44.127 E20.96083
G1 X20.126 Y43.551 E20.99202
G1 X20.912 Y43.039 E21.02322
G1 X21.739 Y42.597 E21.05441
G0 F6000 X22.111 Y42.864
G1 F1200 X22.965 Y42.519 E21.08505
G1 X23.845 Y42.249 E21.11566
G1 X24.745 Y42.057 E21.14627
G1 X25.659 Y41.943 E21.1769
G1 X26.212 Y41.913 E21.19532
G1 X26.533 Y41.904 E21.206
G1 X26.83 Y41.9 E21.21588
G1 X192.793 Y41.9 E26.73584
G1 X193.643 Y41.911 E26.76411
G1 X194.562 Y41.964 E26.79473
G1 X195.473 Y42.097 E26.82535
G1 X196.369 Y42.308 E26.85596
G1 X197.243 Y42.596 E26.88657
G1 X198.09 Y42.959 E26.91722
G1 X198.901 Y43.394 E26.94783
G1 X199.671 Y43.898 E26.97844
G1 X200.395 Y44.467 E27.00906
G1 X201.067 Y45.097 E27.0397
G1 X201.682 Y45.782 E27.07032
G1 X202.235 Y46.518 E27.10094
G1 X202.722 Y47.299 E27.13155
G1 X203.139 Y48.12 E27.16218
G1 X203.484 Y48.974 E27.19281
G1 X203.753 Y49.854 E27.22342
G1 X203.945 Y50.755 E27.25406
G1 X204.058 Y51.668 E27.28466
G1 X204.087 Y52.212 E27.30278
G1 X204.096 Y52.532 E27.31342
G1 X204.1 Y52.83 E27.32334
G1 X204.099 Y166.895 E31.11715
G1 X204.09 Y167.622 E31.14134
G1 X204.039 Y168.541 E31.17195
G1 X203.908 Y169.453 E31.20259
G1 X203.698 Y170.349 E31.2332
G1 X203.412 Y171.224 E31.26382
G1 X203.051 Y172.071 E31.29444
G1 X202.617 Y172.883 E31.32507
G1 X202.115 Y173.655 E31.35569
G1 X201.547 Y174.38 E31.38633
G1 X200.919 Y175.053 E31.41694
G1 X200.235 Y175.669 E31.44756
G1 X199.5 Y176.223 E31.47817
G1 X198.72 Y176.712 E31.50879
G1 X197.9 Y177.131 E31.53942
G1 X197.047 Y177.477 E31.57003
G1 X196.167 Y177.748 E31.60066
G1 X195.267 Y177.941 E31.63127
G1 X194.353 Y178.056 E31.66191
G1 X193.788 Y178.087 E31.68073
G1 X193.467 Y178.096 E31.69141
G1 X193.17 Y178.1 E31.70129
G1 X27.07 Y178.099 E37.2258
G1 X26.372 Y178.09 E37.24902
G1 X25.453 Y178.038 E37.27964
G1 X24.542 Y177.907 E37.31025
G1 X23.646 Y177.697 E37.34086
G1 X22.771 Y177.41 E37.37148
G1 X21.924 Y177.048 E37.40212
G1 X21.112 Y176.614 E37.43274
G1 X20.341 Y176.112 E37.46334
G1 X19.616 Y175.544 E37.49398
G1 X18.943 Y174.915 E37.52461
G1 X18.328 Y174.231 E37.55521
G1 X17.774 Y173.496 E37.58582
G1 X17.286 Y172.715 E37.61645
G1 X16.867 Y171.895 E37.64708
G1 X16.521 Y171.042 E37.67769
G1 X16.251 Y170.162 E37.70831
G1 X16.058 Y169.261 E37.73896
G1 X15.944 Y168.348 E37.76956
G1 X15.913 Y167.777 E37.78858
G1 X15.904 Y167.444 E37.79966
G1 X15.9 Y167.158 E37.80917
G1 X15.901 Y53.031 E41.60505
G1 X15.91 Y52.366 E41.62717
G1 X15.962 Y51.446 E41.65782
G1 X16.094 Y50.535 E41.68844
G1 X16.305 Y49.639 E41.71905
G1 X16.592 Y48.764 E41.74968
G1 X16.955 Y47.918 E41.7803
G1 X17.389 Y47.106 E41.81092
G1 X17.892 Y46.335 E41.84154
G1 X18.461 Y45.611 E41.87217
G1 X19.089 Y44.939 E41.90276
G1 X19.774 Y44.323 E41.9334
G1 X20.51 Y43.77 E41.96402
G1 X21.291 Y43.282 E41.99465
G1 X22.111 Y42.864 E42.02526
G0 F6000 X22.482 Y43.138
G1 F1200 X23.327 Y42.818 E42.05531
G1 X24.196 Y42.575 E42.08533
G1 X25.084 Y42.409 E42.11537
G1 X26.223 Y42.313 E42.15339
G1 X26.544 Y42.304 E42.16407
G1 X26.83 Y42.3 E42.17358
G1 X192.793 Y42.3 E47.69354
G1 X193.637 Y42.311 E47.72161
G1 X194.539 Y42.364 E47.75166
G1 X195.432 Y42.496 E47.78169
G1 X196.31 Y42.707 E47.81172
G1 X197.166 Y42.995 E47.84176
G1 X197.993 Y43.357 E47.87178
G1 X198.785 Y43.792 E47.90184
G1 X199.536 Y44.294 E47.93188
G1 X200.239 Y44.861 E47.96192
G1 X200.889 Y45.488 E47.99196
G1 X201.481 Y46.17 E48.022
G1 X202.011 Y46.901 E48.05203
G1 X202.473 Y47.677 E48.08207
G1 X202.866 Y48.49 E48.1121
G1 X203.184 Y49.335 E48.14213
G1 X203.427 Y50.205 E48.17217
G1 X203.592 Y51.093 E48.20221
G1 X203.687 Y52.223 E48.23993
G1 X203.696 Y52.543 E48.25058
G1 X203.7 Y52.83 E48.26012
G1 X203.699 Y166.89 E52.05378
G1 X203.69 Y167.617 E52.07796
G1 X203.639 Y168.519 E52.10801
G1 X203.508 Y169.413 E52.13806
G1 X203.299 Y170.291 E52.16808
G1 X203.013 Y171.148 E52.19813
G1 X202.652 Y171.976 E52.22817
G1 X202.22 Y172.768 E52.25817
G1 X201.719 Y173.52 E52.28823
G1 X201.153 Y174.224 E52.31827
G1 X200.528 Y174.875 E52.34829
G1 X199.847 Y175.469 E52.37834
G1 X199.116 Y176 E52.4084
G1 X198.342 Y176.464 E52.43841
G1 X197.529 Y176.858 E52.46846
G1 X196.685 Y177.178 E52.49848
G1 X195.815 Y177.423 E52.52854
G1 X194.928 Y177.589 E52.55856
G1 X193.777 Y177.687 E52.59698
G1 X193.456 Y177.696 E52.60766
G1 X193.17 Y177.7 E52.61717
G1 X27.075 Y177.699 E58.14151
G1 X26.377 Y177.69 E58.16473
G1 X25.476 Y177.639 E58.19475
G1 X24.582 Y177.507 E58.2248
G1 X23.704 Y177.298 E58.25482
G1 X22.847 Y177.011 E58.28488
G1 X22.02 Y176.65 E58.31489
G1 X21.227 Y176.217 E58.34494
G1 X20.476 Y175.716 E58.37497
G1 X19.772 Y175.15 E58.40502
G1 X19.121 Y174.524 E58.43505
G1 X18.528 Y173.843 E58.46509
G1 X17.998 Y173.112 E58.49512
G1 X17.534 Y172.337 E58.52516
G1 X17.14 Y171.524 E58.55521
G1 X16.82 Y170.68 E58.58523
G1 X16.576 Y169.81 E58.61529
G1 X16.41 Y168.922 E58.64533
G1 X16.313 Y167.767 E58.68388
G1 X16.304 Y167.434 E58.69496
G1 X16.3 Y167.158 E58.70414
G1 X16.301 Y53.036 E62.49986
G1 X16.31 Y52.371 E62.52198
G1 X16.362 Y51.469 E62.55203
G1 X16.494 Y50.576 E62.58205
G1 X16.704 Y49.698 E62.61208
G1 X16.991 Y48.841 E62.64214
G1 X17.353 Y48.014 E62.67216
G1 X17.786 Y47.222 E62.70218
G1 X18.288 Y46.471 E62.73223
G1 X18.855 Y45.767 E62.76229
G1 X19.481 Y45.117 E62.79231
G1 X20.162 Y44.524 E62.82234
G1 X20.894 Y43.994 E62.8524
G1 X21.669 Y43.531 E62.88243
G1 X22.482 Y43.138 E62.91246
G0 F6000 X33.05 Y57.638
G1 F1200 X33.589 Y57.638 E62.93039
G1 X33.444 Y57.75 E62.93648
G1 X33.162 Y58.032 E62.94975
G1 X33.05 Y58.165 E62.95553
G1 X33.05 Y57.638 E62.97306
G0 F6000 X32.65 Y57.238
G1 F1200 X187.35 Y57.238 E68.1184
G1 X187.35 Y161.938 E71.60074
G1 X32.65 Y161.938 E76.74608
G1 X32.65 Y57.238 E80.22842
G0 F6000 X32.25 Y56.838
G1 F1200 X187.75 Y56.838 E85.40037
G1 X187.75 Y162.338 E88.90931
G1 X32.25 Y162.338 E94.08126
G1 X32.25 Y56.838 E97.59021
G0 F6000 X31.85 Y56.438
G1 F1200 X188.15 Y56.438 E102.78877
G1 X188.15 Y162.738 E106.32432
G1 X31.85 Y162.738 E111.52288
G1 X31.85 Y56.438 E115.05843
G0 F6000 X31.45 Y56.038
G1 F1200 X188.55 Y56.038 E120.2836
G1 X188.55 Y163.138 E123.84576
G1 X31.45 Y163.138 E129.07092
G1 X31.45 Y56.038 E132.63309
G0 F6000 X31.05 Y55.638
G1 F1200 X188.95 Y55.638 E137.88486
G1 X188.95 Y163.538 E141.47363
G1 X31.05 Y163.538 E146.7254
G1 X31.05 Y55.638 E150.31417
G0 F6000 X30.65 Y55.238
G1 F1200 X189.35 Y55.238 E155.59256
G1 X189.35 Y163.938 E159.20793
G1 X30.65 Y163.938 E164.48632
G1 X30.65 Y55.238 E168.10169
G0 F6000 X33.444 Y58.314
G1 F1200 X33.178 Y58.638 E168.11564
G1 X32.977 Y59.005 E168.12955
G1 X32.85 Y59.405 E168.14351
G1 X32.8 Y59.87 E168.15907
G1 X32.8 Y159.306 E171.46632
G1 X32.84 Y159.723 E171.48025
G1 X32.958 Y160.125 E171.49419
G1 X33.151 Y160.497 E171.50813
G1 X33.444 Y160.862 E171.5237
G1 X33.726 Y161.144 E171.53696
G1 X34.05 Y161.41 E171.5509
G1 X34.417 Y161.611 E171.56482
G1 X34.817 Y161.738 E171.57878
G1 X35.282 Y161.788 E171.59433
G1 X184.718 Y161.788 E176.5646
G1 X185.135 Y161.748 E176.57853
G1 X185.537 Y161.63 E176.59246
G1 X185.909 Y161.437 E176.6064
G1 X186.274 Y161.144 E176.62197
G1 X186.556 Y160.862 E176.63523
G1 X186.822 Y160.538 E176.64918
G1 X187.023 Y160.171 E176.66309
G1 X187.15 Y159.771 E176.67705
G1 X187.2 Y159.306 E176.69261
G1 X187.2 Y59.87 E179.99986
G1 X187.16 Y59.453 E180.0138
G1 X187.042 Y59.051 E180.02773
G1 X186.849 Y58.679 E180.04167
G1 X186.556 Y58.314 E180.05724
G1 X186.274 Y58.032 E180.0705
G1 X185.95 Y57.766 E180.08444
G1 X185.583 Y57.565 E180.09836
G1 X185.183 Y57.438 E180.11232
G1 X184.718 Y57.388 E180.12788
G1 X35.282 Y57.388 E185.09814
G1 X34.865 Y57.428 E185.11207
G1 X34.463 Y57.546 E185.126
G1 X34.091 Y57.739 E185.13994
G1 X33.726 Y58.032 E185.15551
G1 X33.444 Y58.314 E185.16878
G0 F6000 X33.727 Y58.597
G1 F1200 X33.489 Y58.892 E185.18138
G1 X33.318 Y59.23 E185.19398
G1 X33.221 Y59.596 E185.20657
G1 X33.2 Y59.87 E185.21571
G1 X33.2 Y159.306 E188.52297
G1 X33.24 Y159.683 E188.53558
G1 X33.358 Y160.043 E188.54818
G1 X33.548 Y160.37 E188.56076
G1 X33.727 Y160.579 E188.56991
G1 X34.009 Y160.861 E188.58317
G1 X34.304 Y161.099 E188.59578
G1 X34.642 Y161.27 E188.60838
G1 X35.008 Y161.367 E188.62097
G1 X35.282 Y161.388 E188.63011
G1 X184.718 Y161.388 E193.60038
G1 X185.095 Y161.348 E193.61298
G1 X185.455 Y161.23 E193.62558
G1 X185.782 Y161.04 E193.63816
G1 X185.991 Y160.861 E193.64732
G1 X186.273 Y160.579 E193.66058
G1 X186.511 Y160.284 E193.67319
G1 X186.682 Y159.946 E193.68579
G1 X186.779 Y159.58 E193.69838
G1 X186.8 Y159.306 E193.70752
G1 X186.8 Y59.87 E197.01477
G1 X186.76 Y59.493 E197.02738
G1 X186.642 Y59.133 E197.03998
G1 X186.452 Y58.806 E197.05256
G1 X186.273 Y58.597 E197.06172
G1 X185.991 Y58.315 E197.07498
G1 X185.696 Y58.077 E197.08759
G1 X185.358 Y57.906 E197.10019
G1 X184.992 Y57.809 E197.11278
G1 X184.718 Y57.788 E197.12192
G1 X35.282 Y57.788 E202.09218
G1 X34.905 Y57.828 E202.10479
G1 X34.545 Y57.946 E202.11739
G1 X34.218 Y58.136 E202.12997
G1 X34.009 Y58.315 E202.13912
G1 X33.727 Y58.597 E202.15239
G0 F6000 X34.01 Y58.88
G1 F1200 X33.804 Y59.143 E202.1635
G1 X33.665 Y59.447 E202.17461
G1 X33.6 Y59.87 E202.18885
G1 X33.6 Y159.306 E205.4961
G1 X33.64 Y159.638 E205.50723
G1 X33.757 Y159.95 E205.51831
G1 X34.01 Y160.296 E205.53257
G1 X34.292 Y160.578 E205.54583
G1 X34.555 Y160.784 E205.55694
G1 X34.859 Y160.923 E205.56806
G1 X35.282 Y160.988 E205.58229
G1 X184.718 Y160.988 E210.55255
G1 X185.05 Y160.948 E210.56368
G1 X185.362 Y160.831 E210.57476
G1 X185.708 Y160.578 E210.58902
G1 X185.99 Y160.296 E210.60228
G1 X186.196 Y160.033 E210.61339
G1 X186.335 Y159.729 E210.62451
G1 X186.4 Y159.306 E210.63874
G1 X186.4 Y59.87 E213.946
G1 X186.36 Y59.538 E213.95712
G1 X186.243 Y59.226 E213.9682
G1 X185.99 Y58.88 E213.98246
G1 X185.708 Y58.598 E213.99572
G1 X185.445 Y58.392 E214.00684
G1 X185.141 Y58.253 E214.01795
G1 X184.718 Y58.188 E214.03219
G1 X35.282 Y58.188 E219.00245
G1 X34.95 Y58.228 E219.01357
G1 X34.638 Y58.345 E219.02465
G1 X34.292 Y58.598 E219.03891
G1 X34.01 Y58.88 E219.05218
G0 F6000 X34.293 Y59.163
G1 F1200 X34.124 Y59.389 E219.06156
G1 X34.024 Y59.653 E219.07095
G1 X34 Y59.87 E219.07821
G1 X34 Y159.306 E222.38547
G1 X34.04 Y159.585 E222.39484
G1 X34.156 Y159.842 E222.40422
G1 X34.293 Y160.013 E222.41151
G1 X34.575 Y160.295 E222.42477
G1 X34.801 Y160.464 E222.43416
G1 X35.065 Y160.564 E222.44355
G1 X35.282 Y160.588 E222.45081
G1 X184.718 Y160.588 E227.42107
G1 X184.997 Y160.548 E227.43044
G1 X185.254 Y160.432 E227.43982
G1 X185.425 Y160.295 E227.44711
G1 X185.707 Y160.013 E227.46038
G1 X185.876 Y159.787 E227.46976
G1 X185.976 Y159.523 E227.47915
G1 X186 Y159.306 E227.48641
G1 X186 Y59.87 E230.79367
G1 X185.96 Y59.591 E230.80304
G1 X185.844 Y59.334 E230.81242
G1 X185.707 Y59.163 E230.81971
G1 X185.425 Y58.881 E230.83297
G1 X185.199 Y58.712 E230.84236
G1 X184.935 Y58.612 E230.85175
G1 X184.718 Y58.588 E230.85901
G1 X35.282 Y58.588 E235.82927
G1 X35.003 Y58.628 E235.83864
G1 X34.746 Y58.744 E235.84802
G1 X34.575 Y58.881 E235.85531
G1 X34.293 Y59.163 E235.86857
G0 F6000 X34.576 Y59.446
G1 F1200 X34.452 Y59.625 E235.87582
G1 X34.4 Y59.87 E235.88415
G1 X34.4 Y159.306 E239.1914
G1 X34.44 Y159.521 E239.19868
G1 X34.576 Y159.73 E239.20697
G1 X34.858 Y160.012 E239.22023
G1 X35.037 Y160.136 E239.22748
G1 X35.282 Y160.188 E239.23581
G1 X184.718 Y160.188 E244.20607
G1 X184.933 Y160.148 E244.21334
G1 X185.142 Y160.012 E244.22164
G1 X185.424 Y159.73 E244.2349
G1 X185.548 Y159.551 E244.24214
G1 X185.6 Y159.306 E244.25047
G1 X185.6 Y59.87 E247.55773
G1 X185.56 Y59.655 E247.565
G1 X185.424 Y59.446 E247.57329
G1 X185.142 Y59.164 E247.58656
G1 X184.963 Y59.04 E247.5938
G1 X184.718 Y58.988 E247.60213
G1 X35.282 Y58.988 E252.57239
G1 X35.067 Y59.028 E252.57967
G1 X34.858 Y59.164 E252.58796
G1 X34.576 Y59.446 E252.60123
G0 F6000 X34.859 Y59.729
G1 F1200 X34.8 Y59.87 E252.60631
G1 X34.8 Y159.306 E255.91356
G1 X34.859 Y159.447 E255.91865
G1 X35.141 Y159.729 E255.93191
G1 X35.282 Y159.788 E255.937
G1 X184.718 Y159.788 E260.90726
G1 X184.859 Y159.729 E260.91234
G1 X185.141 Y159.447 E260.9256
G1 X185.2 Y159.306 E260.93069
G1 X185.2 Y59.87 E264.23794
G1 X185.141 Y59.729 E264.24303
G1 X184.859 Y59.447 E264.25629
G1 X184.718 Y59.388 E264.26138
G1 X35.282 Y59.388 E269.23164
G1 X35.141 Y59.447 E269.23672
G1 X34.859 Y59.729 E269.24998
G1 F1500 E262.74998
G0 F6000 X33.05 Y160.999
G1 F1500 E269.24998
G1 F1200 X33.162 Y161.144 E269.25608
G1 X33.444 Y161.426 E269.26934
G1 X33.577 Y161.538 E269.27513
G1 X33.05 Y161.538 E269.29265
G1 X33.05 Y160.999 E269.31058
G1 F1500 E262.81058
G0 F6000 X186.411 Y161.538
G1 F1500 E269.31058
G1 F1200 X186.556 Y161.426 E269.31668
G1 X186.838 Y161.144 E269.32994
G1 X186.95 Y161.011 E269.33572
G1 X186.95 Y161.538 E269.35325
G1 X186.411 Y161.538 E269.37118
G1 F1500 E262.87118
G0 F6000 X186.423 Y57.638
G1 F1500 E269.37118
G1 F1200 X186.95 Y57.638 E269.38871
