;FLAVOR:Marlin
;TIME:7595
;Filament used: 5.70286m
;Layer height: 0.2
;MINX:46.75
;MINY:21.75
;MINZ:0.2
;MAXX:173.25
;MAXY:198.25
;MAXZ:3
;Generated with Cura_SteamEngine 4.13.1
M140 S60
M105
M190 S60
M104 S200
M105
M109 S200
M82 ;absolute extrusion mode
; Ender 3 Custom Start G-code
G92 E0 ; Reset Extruder
G28 ; Home all axes
G1 Z2.0 F3000 ; Move Z Axis up little to prevent scratching of Heat Bed
G1 X0.1 Y20 Z0.3 F5000.0 ; Move to start position
G1 X0.1 Y200.0 Z0.3 F1500.0 E15 ; Draw the first line
G1 X0.4 Y200.0 Z0.3 F5000.0 ; Move to side a little
G1 X0.4 Y20 Z0.3 F1500.0 E30 ; Draw the second line
G92 E0 ; Reset Extruder
G1 Z2.0 F3000 ; Move Z Axis up little to prevent scratching of Heat Bed
G1 X5 Y20 Z0.3 F5000.0 ; Move over to prevent blob squish
G92 E0
G92 E0
G1 F1500 E-6.5
;LAYER_COUNT:15
;LAYER:0
M107
G0 F6000 X48.242 Y27.243 Z0.2
;TYPE:SKIRT
G1 F1500 E0
G1 F1200 X48.746 Y26.453 E0.03117
G1 X49.316 Y25.708 E0.06237
G1 X49.948 Y25.014 E0.09359
G1 X50.636 Y24.377 E0.12477
G1 X51.376 Y23.801 E0.15596
G1 X52.162 Y23.289 E0.18716
G1 X52.989 Y22.847 E0.21835
G1 X53.851 Y22.477 E0.24955
G1 X54.741 Y22.181 E0.28074
G1 X55.653 Y21.963 E0.31193
G1 X56.58 Y21.822 E0.34312
G1 X57.451 Y21.763 E0.37216
G1 X57.772 Y21.754 E0.38284
G1 X58.08 Y21.75 E0.39308
G1 X161.543 Y21.75 E3.83427
G1 X162.399 Y21.761 E3.86275
G1 X163.335 Y21.815 E3.89393
G1 X164.263 Y21.947 E3.92511
G1 X165.177 Y22.159 E3.95631
G1 X166.069 Y22.448 E3.9875
G1 X166.934 Y22.811 E4.0187
G1 X167.764 Y23.247 E4.04988
G1 X168.555 Y23.752 E4.0811
G1 X169.299 Y24.323 E4.11229
G1 X169.992 Y24.955 E4.14348
G1 X170.629 Y25.643 E4.17467
G1 X171.204 Y26.384 E4.20587
G1 X171.715 Y27.17 E4.23705
G1 X172.157 Y27.998 E4.26826
G1 X172.526 Y28.86 E4.29945
G1 X172.821 Y29.75 E4.33064
G1 X173.039 Y30.662 E4.36182
G1 X173.179 Y31.59 E4.39304
G1 X173.237 Y32.451 E4.42174
G1 X173.246 Y32.771 E4.43239
G1 X173.25 Y33.08 E4.44267
G1 X173.249 Y186.65 E9.55043
G1 X173.24 Y187.377 E9.57461
G1 X173.189 Y188.314 E9.60582
G1 X173.057 Y189.242 E9.63699
G1 X172.848 Y190.156 E9.66818
G1 X172.561 Y191.049 E9.69938
G1 X172.199 Y191.915 E9.73059
G1 X171.765 Y192.746 E9.76178
G1 X171.261 Y193.537 E9.79297
G1 X170.692 Y194.282 E9.82415
G1 X170.061 Y194.977 E9.85537
G1 X169.374 Y195.615 E9.88656
G1 X168.635 Y196.192 E9.91774
G1 X167.849 Y196.704 E9.94894
G1 X167.023 Y197.147 E9.98011
G1 X166.161 Y197.519 E10.01134
G1 X165.272 Y197.815 E10.0425
G1 X164.36 Y198.035 E10.07371
G1 X163.433 Y198.176 E10.10489
G1 X162.549 Y198.237 E10.13437
G1 X162.228 Y198.246 E10.14505
G1 X161.92 Y198.25 E10.15529
G1 X58.315 Y198.249 E13.60121
G1 X57.617 Y198.24 E13.62443
G1 X56.681 Y198.188 E13.65561
G1 X55.752 Y198.056 E13.68681
G1 X54.838 Y197.846 E13.71801
G1 X53.945 Y197.559 E13.7492
G1 X53.08 Y197.196 E13.7804
G1 X52.249 Y196.762 E13.81159
G1 X51.458 Y196.258 E13.84278
G1 X50.713 Y195.688 E13.87398
G1 X50.019 Y195.057 E13.90518
G1 X49.382 Y194.37 E13.93634
G1 X48.805 Y193.63 E13.96755
G1 X48.293 Y192.844 E13.99875
G1 X47.85 Y192.017 E14.02995
G1 X47.479 Y191.156 E14.06113
G1 X47.183 Y190.266 E14.09233
G1 X46.964 Y189.354 E14.12353
G1 X46.823 Y188.427 E14.15471
G1 X46.763 Y187.538 E14.18435
G1 X46.754 Y187.205 E14.19543
G1 X46.75 Y186.908 E14.20531
G1 X46.751 Y33.275 E19.31516
G1 X46.76 Y32.61 E19.33728
G1 X46.813 Y31.674 E19.36846
G1 X46.945 Y30.745 E19.39967
G1 X47.156 Y29.831 E19.43087
G1 X47.444 Y28.939 E19.46205
G1 X47.807 Y28.074 E19.49325
G1 X48.242 Y27.243 E19.52445
G0 F6000 X48.639 Y27.356
G1 F1200 X49.142 Y26.585 E19.55506
G1 X49.711 Y25.861 E19.58569
G1 X50.339 Y25.189 E19.61628
G1 X51.024 Y24.573 E19.64692
G1 X51.76 Y24.02 E19.67754
G1 X52.541 Y23.532 E19.70817
G1 X53.361 Y23.114 E19.73878
G1 X54.215 Y22.769 E19.76942
G1 X55.095 Y22.499 E19.80003
G1 X55.995 Y22.307 E19.83064
G1 X56.909 Y22.193 E19.86128
G1 X57.462 Y22.163 E19.8797
G1 X57.783 Y22.154 E19.89038
G1 X58.08 Y22.15 E19.90026
G1 X161.543 Y22.15 E23.34145
G1 X162.393 Y22.161 E23.36972
G1 X163.312 Y22.214 E23.40034
G1 X164.223 Y22.347 E23.43096
G1 X165.119 Y22.558 E23.46158
G1 X165.993 Y22.846 E23.49219
G1 X166.84 Y23.209 E23.52283
G1 X167.651 Y23.644 E23.55344
G1 X168.421 Y24.148 E23.58405
G1 X169.145 Y24.717 E23.61468
G1 X169.817 Y25.347 E23.64532
G1 X170.432 Y26.032 E23.67593
G1 X170.985 Y26.768 E23.70655
G1 X171.472 Y27.549 E23.73717
G1 X171.889 Y28.37 E23.76779
G1 X172.234 Y29.224 E23.79843
G1 X172.503 Y30.104 E23.82903
G1 X172.695 Y31.005 E23.85967
G1 X172.808 Y31.918 E23.89027
G1 X172.837 Y32.462 E23.90839
G1 X172.846 Y32.782 E23.91904
G1 X172.85 Y33.08 E23.92895
G1 X172.849 Y186.645 E29.03654
G1 X172.84 Y187.372 E29.06073
G1 X172.789 Y188.291 E29.09134
G1 X172.658 Y189.203 E29.12198
G1 X172.448 Y190.099 E29.15259
G1 X172.162 Y190.974 E29.18321
G1 X171.801 Y191.821 E29.21383
G1 X171.367 Y192.633 E29.24446
G1 X170.865 Y193.405 E29.27508
G1 X170.297 Y194.13 E29.30572
G1 X169.669 Y194.803 E29.33633
G1 X168.985 Y195.419 E29.36695
G1 X168.25 Y195.973 E29.39756
G1 X167.47 Y196.462 E29.42818
G1 X166.65 Y196.881 E29.45881
G1 X165.797 Y197.227 E29.48942
G1 X164.917 Y197.498 E29.52005
G1 X164.017 Y197.691 E29.55066
G1 X163.103 Y197.806 E29.5813
G1 X162.538 Y197.837 E29.60012
G1 X162.217 Y197.846 E29.6108
G1 X161.92 Y197.85 E29.62068
G1 X58.32 Y197.849 E33.06643
G1 X57.622 Y197.84 E33.08965
G1 X56.703 Y197.788 E33.12027
G1 X55.792 Y197.657 E33.15088
G1 X54.896 Y197.447 E33.18149
G1 X54.021 Y197.16 E33.21211
G1 X53.174 Y196.798 E33.24275
G1 X52.362 Y196.364 E33.27337
G1 X51.591 Y195.862 E33.30397
G1 X50.866 Y195.294 E33.33461
G1 X50.193 Y194.665 E33.36525
G1 X49.578 Y193.981 E33.39584
G1 X49.024 Y193.246 E33.42645
G1 X48.536 Y192.465 E33.45708
G1 X48.117 Y191.645 E33.48771
G1 X47.771 Y190.792 E33.51833
G1 X47.501 Y189.912 E33.54894
G1 X47.308 Y189.011 E33.57959
G1 X47.194 Y188.098 E33.61019
G1 X47.163 Y187.527 E33.62921
G1 X47.154 Y187.194 E33.64029
G1 X47.15 Y186.908 E33.6498
G1 X47.151 Y33.281 E38.75946
G1 X47.16 Y32.616 E38.78158
G1 X47.212 Y31.696 E38.81223
G1 X47.344 Y30.785 E38.84284
G1 X47.555 Y29.889 E38.87346
G1 X47.842 Y29.014 E38.90409
G1 X48.205 Y28.168 E38.93471
G1 X48.639 Y27.356 E38.96533
G0 F6000 X49.036 Y27.472
G1 F1200 X49.538 Y26.721 E38.99537
G1 X50.105 Y26.017 E39.02544
G1 X50.731 Y25.367 E39.05545
G1 X51.412 Y24.774 E39.08549
G1 X52.144 Y24.244 E39.11555
G1 X52.919 Y23.781 E39.14557
G1 X53.732 Y23.388 E39.17561
G1 X54.577 Y23.068 E39.20566
G1 X55.446 Y22.825 E39.23567
G1 X56.334 Y22.659 E39.26572
G1 X57.473 Y22.563 E39.30373
G1 X57.794 Y22.554 E39.31442
G1 X58.08 Y22.55 E39.32393
G1 X161.543 Y22.55 E42.76512
G1 X162.387 Y22.561 E42.7932
G1 X163.289 Y22.614 E42.82325
G1 X164.182 Y22.746 E42.85327
G1 X165.06 Y22.957 E42.88331
G1 X165.916 Y23.245 E42.91334
G1 X166.743 Y23.607 E42.94337
G1 X167.535 Y24.042 E42.97342
G1 X168.286 Y24.544 E43.00347
G1 X168.989 Y25.111 E43.03351
G1 X169.639 Y25.738 E43.06355
G1 X170.231 Y26.42 E43.09358
G1 X170.761 Y27.151 E43.12362
G1 X171.223 Y27.927 E43.15365
G1 X171.616 Y28.74 E43.18369
G1 X171.934 Y29.585 E43.21372
G1 X172.177 Y30.455 E43.24376
G1 X172.342 Y31.343 E43.2738
G1 X172.437 Y32.473 E43.31152
G1 X172.446 Y32.793 E43.32216
G1 X172.45 Y33.08 E43.33171
G1 X172.449 Y186.64 E48.43914
G1 X172.44 Y187.367 E48.46332
G1 X172.389 Y188.269 E48.49337
G1 X172.258 Y189.163 E48.52342
G1 X172.049 Y190.041 E48.55344
G1 X171.763 Y190.898 E48.58349
G1 X171.402 Y191.726 E48.61353
G1 X170.97 Y192.518 E48.64354
G1 X170.469 Y193.27 E48.67359
G1 X169.903 Y193.974 E48.70363
G1 X169.278 Y194.625 E48.73365
G1 X168.597 Y195.219 E48.76371
G1 X167.866 Y195.75 E48.79376
G1 X167.092 Y196.214 E48.82377
G1 X166.279 Y196.608 E48.85382
G1 X165.435 Y196.928 E48.88384
G1 X164.565 Y197.173 E48.9139
G1 X163.678 Y197.339 E48.94392
G1 X162.527 Y197.437 E48.98234
G1 X162.206 Y197.446 E48.99302
G1 X161.92 Y197.45 E49.00253
G1 X58.325 Y197.449 E52.44812
G1 X57.627 Y197.44 E52.47133
G1 X56.726 Y197.389 E52.50135
G1 X55.832 Y197.257 E52.53141
G1 X54.954 Y197.048 E52.56142
G1 X54.097 Y196.761 E52.59148
G1 X53.27 Y196.4 E52.6215
G1 X52.477 Y195.967 E52.65155
G1 X51.726 Y195.466 E52.68157
G1 X51.022 Y194.9 E52.71162
G1 X50.371 Y194.274 E52.74166
G1 X49.778 Y193.593 E52.77169
G1 X49.248 Y192.862 E52.80172
G1 X48.784 Y192.087 E52.83177
G1 X48.39 Y191.274 E52.86181
G1 X48.07 Y190.43 E52.89184
G1 X47.826 Y189.56 E52.92189
G1 X47.66 Y188.672 E52.95194
G1 X47.563 Y187.517 E52.99049
G1 X47.554 Y187.184 E53.00157
G1 X47.55 Y186.908 E53.01075
G1 X47.551 Y33.286 E58.12023
G1 X47.56 Y32.621 E58.14235
G1 X47.612 Y31.719 E58.17241
G1 X47.744 Y30.826 E58.20243
G1 X47.954 Y29.948 E58.23246
G1 X48.241 Y29.091 E58.26252
G1 X48.603 Y28.264 E58.29254
G1 X49.036 Y27.472 E58.32256
G1 F1500 E51.82256
;MESH:Front Panel.stl
G0 F6000 X63.93 Y49.375
G0 X62.495 Y49.375
G0 X62.837 Y160.117
G0 X141.365 Y160.289
;TYPE:WALL-INNER
G1 F1500 E58.32256
G1 F1200 X141.365 Y37.589 E62.40358
G1 X62.665 Y37.593 E65.02115
G1 X62.665 Y160.289 E69.10204
G1 X141.365 Y160.289 E71.71961
G0 F6000 X140.965 Y159.889
;TYPE:WALL-OUTER
G1 F1200 X140.965 Y37.989 E75.77402
G1 X63.065 Y37.993 E78.36499
G1 X63.065 Y159.889 E82.41926
G1 X140.965 Y159.889 E85.01023
G1 F1500 E78.51023
G0 F6000 X141.265 Y159.889
G0 X139.438 Y160.459
G0 X139.438 Y159.024
G0 X162.915 Y160.485
G0 X161.44 Y160.485
G0 X161.65 Y186.65
;TYPE:WALL-INNER
G1 F1500 E85.01023
G1 F1200 X58.35 Y186.65 E88.446
G1 X58.35 Y33.35 E93.54478
G1 X161.65 Y33.35 E96.98055
G1 X161.65 Y186.65 E102.07933
G0 F6000 X162.05 Y187.05
;TYPE:WALL-OUTER
G1 F1200 X57.95 Y187.05 E105.54171
G1 X57.95 Y32.95 E110.6671
G1 X162.05 Y32.95 E114.12948
G1 X162.05 Y187.05 E119.25486
G0 F6000 X161.78 Y186.78
G0 X161.54 Y186.26
G0 X161.26 Y186.26
;TYPE:SKIN
G1 F1200 X58.74 Y186.26 E122.66469
G1 X58.74 Y33.74 E127.73753
G1 X161.26 Y33.74 E131.14736
G1 X161.26 Y186.26 E136.22019
G1 F1500 E129.72019
G0 F6000 X161.54 Y186.26
G0 X161.44 Y160.429
G0 X162.915 Y160.429
G0 X140.112 Y159.036
G0 X141.555 Y160.429
G1 F1500 E136.22019
G0 F6000 X141.755 Y160.679
G1 F1200 X141.755 Y37.199 E140.32716
G1 X62.275 Y37.203 E142.97067
G1 X62.275 Y160.679 E147.0775
G1 X141.755 Y160.679 E149.72101
G1 F1500 E143.22101
G0 F6000 X141.475 Y160.429
G0 X137.301 Y160.459
G0 X137.301 Y159.024
G0 X62.475 Y187.915
G0 X62.475 Y186.44
G0 X59.385 Y186.54
G1 F1500 E149.72101
G0 F6000 X59.385 Y186.099
G1 F1200 X58.899 Y185.613 E149.74387
G0 F6000 X58.899 Y185.047
G1 F1200 X59.951 Y186.099 E149.79336
G0 F6000 X60.517 Y186.099
G1 F1200 X58.899 Y184.482 E149.86944
G0 F6000 X58.899 Y183.916
G1 F1200 X61.082 Y186.099 E149.97212
G0 F6000 X61.648 Y186.099
G1 F1200 X58.899 Y183.35 E150.10143
G0 F6000 X58.899 Y182.784
G1 F1200 X62.214 Y186.099 E150.25735
G0 F6000 X62.779 Y186.099
G1 F1200 X58.899 Y182.219 E150.43986
G0 F6000 X58.899 Y181.653
G1 F1200 X63.345 Y186.099 E150.64898
G0 F6000 X63.911 Y186.099
G1 F1200 X58.899 Y181.087 E150.88473
G0 F6000 X58.899 Y180.522
G1 F1200 X64.476 Y186.099 E151.14706
G0 F6000 X65.042 Y186.099
G1 F1200 X58.899 Y179.956 E151.43601
G0 F6000 X58.899 Y179.39
G1 F1200 X65.608 Y186.099 E151.75158
G0 F6000 X66.173 Y186.099
G1 F1200 X58.899 Y178.825 E152.09372
G0 F6000 X58.899 Y178.259
G1 F1200 X66.739 Y186.099 E152.46249
G0 F6000 X67.305 Y186.099
G1 F1200 X58.899 Y177.693 E152.85788
G0 F6000 X58.899 Y177.128
G1 F1200 X67.87 Y186.099 E153.27985
G0 F6000 X68.436 Y186.099
G1 F1200 X58.899 Y176.562 E153.72844
G0 F6000 X58.899 Y175.996
G1 F1200 X69.002 Y186.099 E154.20366
G0 F6000 X69.567 Y186.099
G1 F1200 X58.899 Y175.431 E154.70545
G0 F6000 X58.899 Y174.865
G1 F1200 X70.133 Y186.099 E155.23386
G0 F6000 X70.699 Y186.099
G1 F1200 X58.899 Y174.299 E155.7889
G0 F6000 X58.899 Y173.734
G1 F1200 X71.265 Y186.099 E156.37053
G0 F6000 X71.83 Y186.099
G1 F1200 X58.899 Y173.168 E156.97877
G0 F6000 X58.899 Y172.602
G1 F1200 X72.396 Y186.099 E157.61362
G0 F6000 X72.962 Y186.099
G1 F1200 X58.899 Y172.036 E158.2751
G0 F6000 X58.899 Y171.471
G1 F1200 X73.527 Y186.099 E158.96316
G0 F6000 X74.093 Y186.099
G1 F1200 X58.899 Y170.905 E159.67784
G0 F6000 X58.899 Y170.339
G1 F1200 X74.659 Y186.099 E160.41914
G0 F6000 X75.224 Y186.099
G1 F1200 X58.899 Y169.774 E161.18702
G0 F6000 X58.899 Y169.208
G1 F1200 X75.79 Y186.099 E161.98152
G0 F6000 X76.356 Y186.099
G1 F1200 X58.899 Y168.642 E162.80264
G0 F6000 X58.899 Y168.077
G1 F1200 X76.921 Y186.099 E163.65034
G0 F6000 X77.487 Y186.099
G1 F1200 X58.899 Y167.511 E164.52467
G0 F6000 X58.899 Y166.945
G1 F1200 X78.053 Y186.099 E165.42561
G0 F6000 X78.618 Y186.099
G1 F1200 X58.899 Y166.38 E166.35313
G0 F6000 X58.899 Y165.814
G1 F1200 X79.184 Y186.099 E167.30728
G0 F6000 X79.75 Y186.099
G1 F1200 X58.899 Y165.248 E168.28805
G0 F6000 X58.899 Y164.683
G1 F1200 X80.316 Y186.099 E169.29541
G0 F6000 X80.881 Y186.099
G1 F1200 X58.899 Y164.117 E170.32938
G0 F6000 X58.899 Y163.551
G1 F1200 X81.447 Y186.099 E171.38997
G0 F6000 X82.013 Y186.099
G1 F1200 X58.899 Y162.985 E172.47718
G0 F6000 X58.899 Y162.42
G1 F1200 X82.578 Y186.099 E173.59097
G0 F6000 X83.144 Y186.099
G1 F1200 X58.899 Y161.854 E174.73138
G0 F6000 X58.899 Y161.288
G1 F1200 X83.71 Y186.099 E175.89841
G0 F6000 X84.275 Y186.099
G1 F1200 X58.899 Y160.723 E177.09202
G0 F6000 X58.899 Y160.157
G1 F1200 X84.841 Y186.099 E178.31225
G0 F6000 X85.407 Y186.099
G1 F1200 X58.899 Y159.591 E179.55911
G0 F6000 X58.899 Y159.026
G1 F1200 X85.972 Y186.099 E180.83254
G0 F6000 X86.538 Y186.099
G1 F1200 X58.899 Y158.46 E182.13259
G0 F6000 X58.899 Y157.894
G1 F1200 X87.104 Y186.099 E183.45927
G0 F6000 X87.669 Y186.099
G1 F1200 X62.409 Y160.838 E184.64744
G0 F6000 X62.115 Y160.544
G1 F1200 X58.899 Y157.329 E184.79869
G0 F6000 X58.899 Y156.763
G1 F1200 X62.115 Y159.978 E184.94994
G0 F6000 X62.115 Y159.412
G1 F1200 X58.899 Y156.197 E185.10119
G0 F6000 X58.899 Y155.632
G1 F1200 X62.115 Y158.847 E185.25243
G0 F6000 X62.115 Y158.281
G1 F1200 X58.899 Y155.066 E185.40368
G0 F6000 X58.899 Y154.5
G1 F1200 X62.115 Y157.715 E185.55493
G0 F6000 X62.115 Y157.15
G1 F1200 X58.899 Y153.935 E185.70617
G0 F6000 X58.899 Y153.369
G1 F1200 X62.115 Y156.584 E185.85742
G0 F6000 X62.115 Y156.018
G1 F1200 X58.899 Y152.803 E186.00867
G0 F6000 X58.899 Y152.237
G1 F1200 X62.115 Y155.453 E186.15994
G0 F6000 X62.115 Y154.887
G1 F1200 X58.899 Y151.672 E186.31119
G0 F6000 X58.899 Y151.106
G1 F1200 X62.115 Y154.321 E186.46243
G0 F6000 X62.115 Y153.756
G1 F1200 X58.899 Y150.54 E186.61371
G0 F6000 X58.899 Y149.975
G1 F1200 X62.115 Y153.19 E186.76495
G0 F6000 X62.115 Y152.624
G1 F1200 X58.899 Y149.409 E186.9162
G0 F6000 X58.899 Y148.843
G1 F1200 X62.115 Y152.059 E187.06747
G0 F6000 X62.115 Y151.493
G1 F1200 X58.899 Y148.278 E187.21872
G0 F6000 X58.899 Y147.712
G1 F1200 X62.115 Y150.927 E187.36997
G0 F6000 X62.115 Y150.362
G1 F1200 X58.899 Y147.146 E187.52124
G0 F6000 X58.899 Y146.581
G1 F1200 X62.115 Y149.796 E187.67248
G0 F6000 X62.115 Y149.23
G1 F1200 X58.899 Y146.015 E187.82373
G0 F6000 X58.899 Y145.449
G1 F1200 X62.115 Y148.664 E187.97498
G0 F6000 X62.115 Y148.099
G1 F1200 X58.899 Y144.884 E188.12622
G0 F6000 X58.899 Y144.318
G1 F1200 X62.115 Y147.533 E188.27747
G0 F6000 X62.115 Y146.967
G1 F1200 X58.899 Y143.752 E188.42872
G0 F6000 X58.899 Y143.187
G1 F1200 X62.115 Y146.402 E188.57997
G0 F6000 X62.115 Y145.836
G1 F1200 X58.899 Y142.621 E188.73121
G0 F6000 X58.899 Y142.055
G1 F1200 X62.115 Y145.27 E188.88246
G0 F6000 X62.115 Y144.705
G1 F1200 X58.899 Y141.489 E189.03373
G0 F6000 X58.899 Y140.924
G1 F1200 X62.115 Y144.139 E189.18498
G0 F6000 X62.115 Y143.573
G1 F1200 X58.899 Y140.358 E189.33623
G0 F6000 X58.899 Y139.792
G1 F1200 X62.115 Y143.008 E189.4875
G0 F6000 X62.115 Y142.442
G1 F1200 X58.899 Y139.227 E189.63874
G0 F6000 X58.899 Y138.661
G1 F1200 X62.115 Y141.876 E189.78999
G0 F6000 X62.115 Y141.311
G1 F1200 X58.899 Y138.095 E189.94126
G0 F6000 X58.899 Y137.53
G1 F1200 X62.115 Y140.745 E190.09251
G0 F6000 X62.115 Y140.179
G1 F1200 X58.899 Y136.964 E190.24376
G0 F6000 X58.899 Y136.398
G1 F1200 X62.115 Y139.613 E190.395
G0 F6000 X62.115 Y139.048
G1 F1200 X58.899 Y135.833 E190.54625
G0 F6000 X58.899 Y135.267
G1 F1200 X62.115 Y138.482 E190.6975
G0 F6000 X62.115 Y137.916
G1 F1200 X58.899 Y134.701 E190.84875
G0 F6000 X58.899 Y134.136
